symbols/web/table_view/materialsymbolsrounded/table_view_wght100_20px.svg

<svg xmlns="http://www.w3.org/2000/svg" height="20" width="20"><path d="M8.25 16.417q-.562 0-.948-.386-.385-.385-.385-.948V8.25q0-.562.385-.948.386-.385.948-.385h6.833q.563 0 .948.385.386.386.386.948v6.833q0 .563-.386.948-.385.386-.948.386Zm.458-6.584h5.917q.437 0 .781-.333.344-.333.344-.792 0-.437-.344-.781-.344-.344-.781-.344H8.708q-.437 0-.781.334-.344.333-.344.791 0 .438.344.782.344.343.781.343Zm1.792 3h2.333V10.5H10.5Zm0 2.917h2.333V13.5H10.5Zm-2.917-2.917h2.25V10.5h-2.25Zm5.917 0h2.25V10.5H13.5ZM8.25 15.75h1.583V13.5h-2.25v1.583q0 .292.188.479.187.188.479.188Zm5.25 0h1.583q.292 0 .479-.188.188-.187.188-.479V13.5H13.5Zm-8.583-2.667q-.563 0-.948-.385-.386-.386-.386-.948V4.917q0-.563.386-.948.385-.386.948-.386h6.833q.562 0 .948.386.385.385.385.948v1.125h-.666V4.917q0-.292-.188-.479-.187-.188-.479-.188H4.917q-.292 0-.479.188-.188.187-.188.479v6.833q0 .292.188.479.187.188.479.188h1.125v.666Z"/></svg>

<svg xmlns="http://www.w3.org/2000/svg" height="20" width="20"><path d="M8.25 16.417Q7.688 16.417 7.302 16.031Q6.917 15.646 6.917 15.083V8.25Q6.917 7.688 7.302 7.302Q7.688 6.917 8.25 6.917H15.083Q15.646 6.917 16.031 7.302Q16.417 7.688 16.417 8.25V15.083Q16.417 15.646 16.031 16.031Q15.646 16.417 15.083 16.417ZM8.708 9.833H14.625Q15.062 9.833 15.406 9.5Q15.75 9.167 15.75 8.708Q15.75 8.271 15.406 7.927Q15.062 7.583 14.625 7.583H8.708Q8.271 7.583 7.927 7.917Q7.583 8.25 7.583 8.708Q7.583 9.146 7.927 9.49Q8.271 9.833 8.708 9.833ZM10.5 12.833H12.833V10.5H10.5ZM10.5 15.75H12.833V13.5H10.5ZM7.583 12.833H9.833V10.5H7.583ZM13.5 12.833H15.75V10.5H13.5ZM8.25 15.75H9.833V13.5H7.583V15.083Q7.583 15.375 7.771 15.562Q7.958 15.75 8.25 15.75ZM13.5 15.75H15.083Q15.375 15.75 15.562 15.562Q15.75 15.375 15.75 15.083V13.5H13.5ZM4.917 13.083Q4.354 13.083 3.969 12.698Q3.583 12.312 3.583 11.75V4.917Q3.583 4.354 3.969 3.969Q4.354 3.583 4.917 3.583H11.75Q12.312 3.583 12.698 3.969Q13.083 4.354 13.083 4.917V6.042H12.417V4.917Q12.417 4.625 12.229 4.438Q12.042 4.25 11.75 4.25H4.917Q4.625 4.25 4.438 4.438Q4.25 4.625 4.25 4.917V11.75Q4.25 12.042 4.438 12.229Q4.625 12.417 4.917 12.417H6.042V13.083Z"/></svg>
